images/Avalanche-logo.svg

<svg width="297" height="61" viewBox="0 0 297 61" fill="none" xmlns="http://www.w3.org/2000/svg">
<path fill-rule="evenodd" clip-rule="evenodd" d="M241.715 20.7628C240.514 20.2507 239.204 19.9946 237.786 19.9946C236.171 19.9946 234.684 20.2605 233.326 20.7922C231.987 21.3043 230.825 22.0429 229.84 23.0079C228.874 23.9729 228.116 25.1447 227.565 26.5232C227.013 27.8822 226.738 29.3986 226.738 31.0726C226.738 32.7072 227.013 34.1941 227.565 35.5333C228.116 36.8725 228.874 38.0246 229.84 38.9896C230.825 39.9349 231.987 40.6735 233.326 41.2052C234.684 41.7172 236.171 41.9733 237.786 41.9733C239.322 41.9733 240.77 41.6779 242.128 41.0871C243.488 40.4963 244.639 39.5509 245.585 38.2511L242.513 36.0651C241.823 36.9513 241.075 37.6012 240.268 38.0148C239.48 38.4087 238.663 38.6056 237.816 38.6056C236.733 38.6056 235.748 38.4087 234.861 38.0148C233.995 37.6209 233.247 37.0793 232.616 36.39C231.987 35.7007 231.494 34.8834 231.139 33.9381C230.804 32.9927 230.637 31.9588 230.637 30.8363C230.637 29.7924 230.804 28.8176 231.139 27.9117C231.494 27.0057 231.987 26.218 232.616 25.5484C233.247 24.8591 233.995 24.3273 234.861 23.9531C235.748 23.5593 236.733 23.3623 237.816 23.3623C238.544 23.3623 239.264 23.5002 239.972 23.7759C240.701 24.0516 241.449 24.603 242.217 25.4302L245.112 23.3033C244.068 22.102 242.936 21.2551 241.715 20.7628ZM92.3468 41.4415L83.3367 20.5264H80.1167L71.0181 41.4415H75.1834L77.074 36.6559H86.1432L88.0928 41.4415H92.3468ZM100.623 20.5264L106.324 36.3309L112.203 20.5264H116.221L107.772 41.4415H104.552L96.3393 20.5264H100.623ZM141.753 41.4415L132.744 20.5264H129.523L120.425 41.4415H124.589L126.48 36.6559H135.55L137.499 41.4415H141.753ZM153.708 20.5264V38.0738H162.6V41.4415H149.986V20.5264H153.708ZM190.207 41.4415L181.198 20.5264H177.977L168.879 41.4415H173.045L174.935 36.6559H184.004L185.953 41.4415H190.207ZM203.374 20.5264L213.506 36.0651H213.566V20.5264H217.287V41.4415H212.561L202.221 25.4007H202.163V41.4415H198.44V20.5264H203.374ZM257.713 28.857V20.5264H253.992V41.4415H257.713V32.2247H267.491V41.4415H271.214V20.5264H267.491V28.857H257.713ZM295.651 20.5264V23.8941H285.518V29.0342H295.119V32.4019H285.518V38.0738H296.183V41.4415H281.796V20.5264H295.651ZM78.3443 33.4654L81.6233 24.9576L84.8433 33.4654H78.3443ZM131.03 24.9576L127.751 33.4654H134.25L131.03 24.9576ZM176.205 33.4654L179.484 24.9576L182.704 33.4654H176.205Z" fill="white"/>
<path fill-rule="evenodd" clip-rule="evenodd" d="M30 60.9658C46.5685 60.9658 60 47.5344 60 30.9658C60 14.3973 46.5685 0.96582 30 0.96582C13.4314 0.96582 0 14.3973 0 30.9658C0 47.5344 13.4314 60.9658 30 60.9658ZM20.9353 44.5572H13.8976C12.229 44.5572 11.3947 44.5572 10.895 44.234C10.355 43.8848 10.0143 43.2988 9.97824 42.6572C9.94476 42.0634 10.358 41.3394 11.1845 39.8916L11.1848 39.8911L26.5935 12.8967C27.4321 11.4274 27.8515 10.6928 28.3851 10.4193C28.9614 10.1239 29.645 10.1234 30.2218 10.418C30.7558 10.6906 31.1761 11.4247 32.0169 12.8927L35.5707 19.0975L35.5708 19.0977C36.1822 20.1651 36.4879 20.6989 36.6223 21.262C36.7687 21.875 36.7689 22.5137 36.6232 23.1268C36.4892 23.6901 36.184 24.2242 35.5734 25.2922L26.3592 41.4115C25.7398 42.4952 25.43 43.037 25.0057 43.442C24.5438 43.8829 23.9836 44.2078 23.3714 44.39C22.8089 44.5572 22.1844 44.5572 20.9353 44.5572ZM46.0438 44.5572H37.8844C36.2006 44.5572 35.3587 44.5572 34.8575 44.2312C34.3159 43.879 33.9762 43.2886 33.9442 42.6439C33.9145 42.0473 34.3382 41.3202 35.1857 39.8665L39.2586 32.8787C40.0954 31.4433 40.5138 30.7256 41.0434 30.4568C41.6159 30.1663 42.2927 30.1658 42.8657 30.4554C43.3958 30.7234 43.8151 31.4405 44.6537 32.8745L44.6539 32.875L48.7404 39.8626C49.591 41.3173 50.0163 42.0447 49.9873 42.6418C49.9559 43.2871 49.6164 43.8781 49.0745 44.2308C48.5733 44.5572 47.7301 44.5572 46.0438 44.5572Z" fill="white"/>
</svg>

<svg xmlns="http://www.w3.org/2000/svg" width="297" height="61" fill="none"><path fill="#fff" fill-rule="evenodd" d="M241.715 20.763c-1.201-.512-2.511-.768-3.929-.768-1.615 0-3.102.265-4.46.797a10.047 10.047 0 0 0-3.486 2.216c-.966.965-1.724 2.137-2.275 3.515-.552 1.36-.827 2.876-.827 4.55 0 1.634.275 3.121.827 4.46.551 1.34 1.309 2.492 2.275 3.457a10.651 10.651 0 0 0 3.486 2.215c1.358.512 2.845.768 4.46.768 1.536 0 2.984-.295 4.342-.886 1.36-.59 2.511-1.536 3.457-2.836l-3.072-2.186c-.69.886-1.438 1.536-2.245 1.95a5.418 5.418 0 0 1-2.452.59c-1.083 0-2.068-.196-2.955-.59a6.86 6.86 0 0 1-2.245-1.625 7.511 7.511 0 0 1-1.477-2.452c-.335-.945-.502-1.98-.502-3.102 0-1.044.167-2.018.502-2.924a7.304 7.304 0 0 1 1.477-2.364 6.507 6.507 0 0 1 2.245-1.595c.887-.394 1.872-.59 2.955-.59.728 0 1.448.137 2.156.413.729.276 1.477.827 2.245 1.654l2.895-2.127c-1.044-1.201-2.176-2.048-3.397-2.54ZM92.347 41.44l-9.01-20.915h-3.22l-9.099 20.915h4.165l1.891-4.785h9.07l1.949 4.785h4.254Zm8.276-20.915 5.701 15.805 5.879-15.805h4.018l-8.449 20.915h-3.22l-8.213-20.915h4.284Zm41.13 20.915-9.009-20.915h-3.221l-9.098 20.915h4.164l1.891-4.785h9.07l1.949 4.785h4.254Zm11.955-20.915v17.548h8.892v3.367h-12.614V20.526h3.722Zm36.499 20.915-9.009-20.915h-3.221l-9.098 20.915h4.166l1.89-4.785h9.069l1.949 4.785h4.254Zm13.167-20.915 10.132 15.54h.06v-15.54h3.721v20.915h-4.726l-10.34-16.04h-.058v16.04h-3.723V20.526h4.934Zm54.339 8.331v-8.33h-3.721V41.44h3.721v-9.216h9.778v9.216h3.723V20.526h-3.723v8.331h-9.778Zm37.938-8.33v3.367h-10.133v5.14h9.601v3.368h-9.601v5.672h10.665v3.367h-14.387V20.526h13.855ZM78.344 33.464l3.28-8.507 3.22 8.507h-6.5Zm52.686-8.507-3.279 8.507h6.499l-3.22-8.507Zm45.175 8.507 3.279-8.507 3.22 8.507h-6.499ZM30 60.966c16.569 0 30-13.432 30-30 0-16.569-13.431-30-30-30-16.569 0-30 13.431-30 30 0 16.568 13.431 30 30 30Zm-9.065-16.409h-7.037c-1.669 0-2.503 0-3.003-.323-.54-.35-.88-.935-.917-1.577-.033-.594.38-1.318 1.207-2.765l15.408-26.995c.84-1.47 1.259-2.204 1.792-2.478a2.017 2.017 0 0 1 1.837-.001c.534.273.954 1.007 1.795 2.475l3.554 6.204c.611 1.068.917 1.602 1.051 2.165a4.023 4.023 0 0 1 .001 1.865c-.134.563-.439 1.097-1.05 2.165l-9.214 16.12c-.62 1.083-.929 1.625-1.353 2.03a4.033 4.033 0 0 1-1.635.948c-.562.167-1.187.167-2.436.167Zm25.109 0h-8.16c-1.683 0-2.525 0-3.026-.326a2.013 2.013 0 0 1-.914-1.587c-.03-.597.394-1.324 1.242-2.777l4.073-6.988c.836-1.436 1.255-2.153 1.784-2.422a2.017 2.017 0 0 1 1.823-.002c.53.268.95.986 1.788 2.42l4.086 6.988c.851 1.454 1.276 2.182 1.247 2.779a2.013 2.013 0 0 1-.913 1.589c-.5.326-1.344.326-3.03.326Z" clip-rule="evenodd"/></svg>
